X: 1
T: Big Scioty
O: trad American
R: reel
N: Named after the Scioto River in Ohio. Also spelled Sciota, Sciote, Scioty.
Z: 2009 John Chambers <jc:trillian.mit.edu>
S: Debby Knight, plus a couple of recordings
M: C|
L: 1/8
K: G
(3DEF \
| "G"G2Bd BAGB | AB2B B2dc | BAGB "D7"AGEG | "G"AG2D G2DE |
| "G"GFGA B2d2 | "C"e3f e2dc | "G"BAGB "D7"AGEG | "G"AG2A G2 :|
|: (3def \
| "G"g2ga bag2 | "Am"ea2b age2 | "(G)"gfgf edBA | "Em"Be2f e3 f |
| "C"e2fg e2d2 | "Am"Be2f e3d | "D7"BAGB AGEG | "G"AG2A G2 :|

%%sep 5 1 500

